contributed-vectors/vivacut.svg

<?xml version="1.0" encoding="UTF-8" standalone="no"?>
<svg
   xmlns:dc="http://purl.org/dc/elements/1.1/"
   xmlns:cc="http://creativecommons.org/ns#"
   xmlns:rdf="http://www.w3.org/1999/02/22-rdf-syntax-ns#"
   xmlns:svg="http://www.w3.org/2000/svg"
   xmlns="http://www.w3.org/2000/svg"
   xmlns:sodipodi="http://sodipodi.sourceforge.net/DTD/sodipodi-0.dtd"
   xmlns:inkscape="http://www.inkscape.org/namespaces/inkscape"
   viewBox="0 0 192 192"
   version="1.1"
   id="svg16"
   sodipodi:docname="vivacut.svg"
   inkscape:version="0.92.4 (5da689c313, 2019-01-14)">
  <metadata
     id="metadata20">
    <rdf:RDF>
      <cc:Work
         rdf:about="">
        <dc:format>image/svg+xml</dc:format>
        <dc:type
           rdf:resource="http://purl.org/dc/dcmitype/StillImage" />
        <dc:title></dc:title>
      </cc:Work>
    </rdf:RDF>
  </metadata>
  <sodipodi:namedview
     pagecolor="#ffffff"
     bordercolor="#666666"
     borderopacity="1"
     objecttolerance="10"
     gridtolerance="10"
     guidetolerance="10"
     inkscape:pageopacity="0"
     inkscape:pageshadow="2"
     inkscape:window-width="1920"
     inkscape:window-height="1017"
     id="namedview18"
     showgrid="true"
     inkscape:zoom="2.4583333"
     inkscape:cx="62.737173"
     inkscape:cy="93.67496"
     inkscape:window-x="-8"
     inkscape:window-y="-8"
     inkscape:window-maximized="1"
     inkscape:current-layer="svg16">
    <inkscape:grid
       type="xygrid"
       id="grid827"
       spacingx="4"
       spacingy="4" />
  </sodipodi:namedview>
  <defs
     id="defs4">
    <style
       id="style2">.a{fill:none;stroke:#b1b5bd;stroke-linecap:round;stroke-linejoin:round;isolation:isolate;opacity:0.63;}</style>
  </defs>
  <rect
     class="a"
     x="20"
     y="20"
     width="152"
     height="152"
     rx="10"
     id="rect6"
     style="fill:#56595b;stroke:none;opacity:1" />
  <path
     style="fill:#bd9aff;stroke:#bd9aff;stroke-width:8;stroke-linecap:round;stroke-linejoin:round;stroke-miterlimit:4;stroke-dasharray:none;stroke-opacity:1"
     d="m 64,60 32,40 32,-40 v 44 L 96,136 64,104 Z"
     id="path829"
     inkscape:connector-curvature="0"
     sodipodi:nodetypes="ccccccc" />
  <path
     style="color:#000000;font-style:normal;font-variant:normal;font-weight:normal;font-stretch:normal;font-size:medium;line-height:normal;font-family:sans-serif;font-variant-ligatures:normal;font-variant-position:normal;font-variant-caps:normal;font-variant-numeric:normal;font-variant-alternates:normal;font-feature-settings:normal;text-indent:0;text-align:start;text-decoration:none;text-decoration-line:none;text-decoration-style:solid;text-decoration-color:#000000;letter-spacing:normal;word-spacing:normal;text-transform:none;writing-mode:lr-tb;direction:ltr;text-orientation:mixed;dominant-baseline:auto;baseline-shift:baseline;text-anchor:start;white-space:normal;shape-padding:0;clip-rule:nonzero;display:inline;overflow:visible;visibility:visible;opacity:1;isolation:auto;mix-blend-mode:normal;color-interpolation:sRGB;color-interpolation-filters:linearRGB;solid-color:#000000;solid-opacity:1;vector-effect:none;fill:#bd9aff;fill-opacity:1;fill-rule:nonzero;stroke:none;stroke-width:8;stroke-linecap:round;stroke-linejoin:round;stroke-miterlimit:4;stroke-dasharray:none;stroke-dashoffset:0;stroke-opacity:1;color-rendering:auto;image-rendering:auto;shape-rendering:auto;text-rendering:auto;enable-background:accumulate"
     d="M 63.984375,56 C 61.781432,56.008825 60.000203,57.797039 60,60 v 44 c 2.06e-4,1.06079 0.421731,2.07807 1.171875,2.82812 l 32,32 c 1.562119,1.56147 4.094131,1.56147 5.65625,0 l 31.999995,-32 C 131.57827,106.07808 131.99979,105.06079 132,104 V 60 c -0.002,-3.779373 -4.76075,-5.448168 -7.12305,-2.498047 L 96,93.597656 67.123047,57.501953 C 66.360743,56.548692 65.204946,55.995607 63.984375,56 Z"
     id="path829-7"
     inkscape:connector-curvature="0"
     sodipodi:nodetypes="ccccccccccccc" />
  <path
     style="fill:#ffffff;stroke:none;stroke-width:1px;stroke-linecap:butt;stroke-linejoin:miter;stroke-opacity:1;opacity:0.5"
     d="M 128.16797 56 C 126.98532 55.939501 125.76282 56.395658 124.87695 57.501953 L 96 93.597656 C 96 93.597656 104 104 114 104 C 124 104 132 92 132 92 L 132 60 C 131.99875 57.637892 130.13904 56.100832 128.16797 56 z "
     id="path848" />
  <path
     style="fill:#ffffff;stroke:none;stroke-width:1px;stroke-linecap:butt;stroke-linejoin:miter;stroke-opacity:1;opacity:0.25"
     d="M 60 88 L 60 104 C 60.000206 105.06079 60.421731 106.07808 61.171875 106.82812 L 93.171875 138.82812 C 93.952934 139.60886 94.976467 140 96 140 C 97.023533 140 98.047066 139.60886 98.828125 138.82812 L 104.82812 132.82812 L 60 88 z "
     id="path866" />
</svg>

<svg xmlns="http://www.w3.org/2000/svg" viewBox="0 0 192 192"><rect width="152" height="152" x="20" y="20" rx="10" style="fill:#56595b;stroke:none;opacity:1;stroke-linecap:round;stroke-linejoin:round;isolation:isolate"/><path d="m64 60 32 40 32-40v44l-32 32-32-32Z" style="fill:#bd9aff;stroke:#bd9aff;stroke-width:8;stroke-linecap:round;stroke-linejoin:round;stroke-miterlimit:4;stroke-dasharray:none;stroke-opacity:1"/><path d="M63.984 56A4 4 0 0 0 60 60v44a4 4 0 0 0 1.172 2.828l32 32a4 4 0 0 0 5.656 0l32-32A4 4 0 0 0 132 104V60c-.002-3.78-4.76-5.448-7.123-2.498L96 93.598 67.123 57.502A4 4 0 0 0 63.984 56Z" style="color:#000;font-style:normal;font-variant:normal;font-weight:400;font-stretch:normal;font-size:medium;line-height:normal;font-family:sans-serif;font-variant-ligatures:normal;font-variant-position:normal;font-variant-caps:normal;font-variant-numeric:normal;font-variant-alternates:normal;font-feature-settings:normal;text-indent:0;text-align:start;text-decoration:none;text-decoration-line:none;text-decoration-style:solid;text-decoration-color:#000;letter-spacing:normal;word-spacing:normal;text-transform:none;writing-mode:lr-tb;direction:ltr;text-orientation:mixed;dominant-baseline:auto;baseline-shift:baseline;text-anchor:start;white-space:normal;shape-padding:0;clip-rule:nonzero;display:inline;overflow:visible;visibility:visible;opacity:1;isolation:auto;mix-blend-mode:normal;color-interpolation:sRGB;color-interpolation-filters:linearRGB;solid-color:#000;solid-opacity:1;vector-effect:none;fill:#bd9aff;fill-opacity:1;fill-rule:nonzero;stroke:none;stroke-width:8;stroke-linecap:round;stroke-linejoin:round;stroke-miterlimit:4;stroke-dasharray:none;stroke-dashoffset:0;stroke-opacity:1;color-rendering:auto;image-rendering:auto;shape-rendering:auto;text-rendering:auto;enable-background:accumulate"/><path d="M128.168 56c-1.183-.06-2.405.396-3.291 1.502L96 93.598S104 104 114 104s18-12 18-12V60c-.001-2.362-1.861-3.9-3.832-4z" style="fill:#fff;stroke:none;stroke-width:1px;stroke-linecap:butt;stroke-linejoin:miter;stroke-opacity:1;opacity:.5"/><path d="M60 88v16a4 4 0 0 0 1.172 2.828l32 32A3.989 3.989 0 0 0 96 140a3.989 3.989 0 0 0 2.828-1.172l6-6L60 88z" style="fill:#fff;stroke:none;stroke-width:1px;stroke-linecap:butt;stroke-linejoin:miter;stroke-opacity:1;opacity:.25"/></svg>
